styles/icons/fit.svg

<?xml version="1.0" encoding="UTF-8"?>
<svg width="24px" height="24px" viewBox="0 0 24 24" version="1.1" xmlns="http://www.w3.org/2000/svg" xmlns:xlink="http://www.w3.org/1999/xlink">
    <!-- Generator: Sketch 47.1 (45422) - http://www.bohemiancoding.com/sketch -->
    <title>Icon/zoom/fit</title>
    <desc>Created with Sketch.</desc>
    <defs></defs>
    <g id="2.-Core" stroke="none" stroke-width="1" fill="none" fill-rule="evenodd">
        <g id="Core/Icons" transform="translate(-870.000000, -160.000000)" fill="#333333">
            <g id="Zoom" transform="translate(670.000000, 120.000000)">
                <g id="Icon/zoom/fit-a01" transform="translate(200.000000, 40.000000)">
                    <path d="M17,15.5850614 L20,18.5856674 L20,14.5 C20,14.225 20.225,14 20.5,14 L21.5,14 C21.775,14 22,14.225 22,14.5 L22,21.5 C22,21.6375 21.94375,21.7625 21.853125,21.853125 C21.7625,21.94375 21.6375,22 21.5,22 L14.5,22 C14.225,22 14,21.775 14,21.5 L14,20.5 C14,20.225 14.225,20 14.5,20 L18.5863325,20 L15.5869385,17 L15.5,17 C15.225,17 15,16.775 15,16.5 L15,15.5 C15,15.225 15.225,15 15.5,15 L16.5,15 C16.775,15 17,15.225 17,15.5 L17,15.5850614 Z M7,8.41503865 L4,5.41443259 L4,9.5 C4,9.775 3.775,10 3.5,10 L2.5,10 C2.225,10 2,9.775 2,9.5 L2,2.5 C2,2.3625 2.05625,2.2375 2.146875,2.146875 C2.2375,2.05625 2.3625,2 2.5,2 L9.5,2 C9.775,2 10,2.225 10,2.5 L10,3.5 C10,3.775 9.775,4 9.5,4 L5.4135675,4 L8.41296156,7 L8.5,7 C8.775,7 9,7.225 9,7.5 L9,8.5 C9,8.775 8.775,9 8.5,9 L7.5,9 C7.225,9 7,8.775 7,8.5 L7,8.41503865 Z M11.5,9 C11.225,9 11,8.775 11,8.5 L11,7.5 C11,7.225 11.225,7 11.5,7 L12.5,7 C12.775,7 13,7.225 13,7.5 L13,8.5 C13,8.775 12.775,9 12.5,9 L11.5,9 Z M7.5,13 C7.225,13 7,12.775 7,12.5 L7,11.5 C7,11.225 7.225,11 7.5,11 L8.5,11 C8.775,11 9,11.225 9,11.5 L9,12.5 C9,12.775 8.775,13 8.5,13 L7.5,13 Z M15.5,13 C15.225,13 15,12.775 15,12.5 L15,11.5 C15,11.225 15.225,11 15.5,11 L16.5,11 C16.775,11 17,11.225 17,11.5 L17,12.5 C17,12.775 16.775,13 16.5,13 L15.5,13 Z M15.5,9 C15.225,9 15,8.775 15,8.5 L15,7.5 C15,7.225 15.225,7 15.5,7 L16.5,7 C16.775,7 17,7.225 17,7.5 L17,8.5 C17,8.775 16.775,9 16.5,9 L15.5,9 Z M7.5,17 C7.225,17 7,16.775 7,16.5 L7,15.5 C7,15.225 7.225,15 7.5,15 L8.5,15 C8.775,15 9,15.225 9,15.5 L9,16.5 C9,16.775 8.775,17 8.5,17 L7.5,17 Z M11.5,17 C11.225,17 11,16.775 11,16.5 L11,15.5 C11,15.225 11.225,15 11.5,15 L12.5,15 C12.775,15 13,15.225 13,15.5 L13,16.5 C13,16.775 12.775,17 12.5,17 L11.5,17 Z" id="Icon"></path>
                </g>
            </g>
        </g>
    </g>
</svg>

<svg fill="#333333" height="24" width="24" viewBox="0 0 24 24" xmlns="http://www.w3.org/2000/svg">
    <path d="M17,15.6l3,3v-4.1c0-0.3,0.2-0.5,0.5-0.5h1c0.3,0,0.5,0.2,0.5,0.5v7c0,0.1-0.1,0.3-0.1,0.4c-0.1,0.1-0.2,0.1-0.4,0.1h-7c-0.3,0-0.5-0.2-0.5-0.5v-1c0-0.3,0.2-0.5,0.5-0.5h4.1l-3-3h-0.1c-0.3,0-0.5-0.2-0.5-0.5v-1c0-0.3,0.2-0.5,0.5-0.5h1C16.8,15,17,15.2,17,15.6L17,15.6z M7,8.4l-3-3v4.1C4,9.8,3.8,10,3.5,10h-1C2.2,10,2,9.8,2,9.5v-7c0-0.1,0.1-0.3,0.1-0.4C2.2,2.1,2.4,2,2.5,2h7C9.8,2,10,2.2,10,2.5v1C10,3.8,9.8,4,9.5,4H5.4l3,3h0.1C8.8,7,9,7.2,9,7.5v1C9,8.8,8.8,9,8.5,9h-1C7.2,9,7,8.8,7,8.4L7,8.4z M11.5,9C11.2,9,11,8.8,11,8.5v-1C11,7.2,11.2,7,11.5,7h1C12.8,7,13,7.2,13,7.5v1C13,8.8,12.8,9,12.5,9H11.5z M7.5,13C7.2,13,7,12.8,7,12.5v-1C7,11.2,7.2,11,7.5,11h1C8.8,11,9,11.2,9,11.5v1C9,12.8,8.8,13,8.5,13H7.5z M15.5,13c-0.3,0-0.5-0.2-0.5-0.5v-1c0-0.3,0.2-0.5,0.5-0.5h1c0.3,0,0.5,0.2,0.5,0.5v1c0,0.3-0.2,0.5-0.5,0.5H15.5z M15.5,9C15.2,9,15,8.8,15,8.5v-1C15,7.2,15.2,7,15.5,7h1C16.8,7,17,7.2,17,7.5v1C17,8.8,16.8,9,16.5,9H15.5z M7.5,17C7.2,17,7,16.8,7,16.5v-1C7,15.2,7.2,15,7.5,15h1C8.8,15,9,15.2,9,15.5v1C9,16.8,8.8,17,8.5,17H7.5z M11.5,17c-0.3,0-0.5-0.2-0.5-0.5v-1c0-0.3,0.2-0.5,0.5-0.5h1c0.3,0,0.5,0.2,0.5,0.5v1c0,0.3-0.2,0.5-0.5,0.5H11.5z"/>
</svg>
